X:1
T:Title
%%score { ( 1 4 ) | ( 2 3 ) }
L:1/8
Q:1/4=100
M:4/4
K:Bb
V:1 treble nm="Grand Piano"
V:4 treble 
V:2 bass 
V:3 bass 
V:1
 [DF]3 [EG] [DF]2 [FB]2 | [Fd]3 [Ec] [DB]4 | c3 d c2 A2 | [Ac]B[CFA][=EG] [A,F]4 | %4
w: M.~J.~Maxwell * * *||||
 [DB]3 [DF] [DF]2 [DB]2 | c3 F F4 | d2 [FB]2 G-[Gd]ec | B2 A2 [DB]4 | c2 F2 F2 F2 | %9
w: |||||
 [Dd]2 [DF]2 D2 D2 | [FB]2 c2 dBec | B2 A2 [DB]4 |] %12
w: |||
V:2
 [B,,B,]3 [B,,B,] [B,,B,]2 [D,B,]2 | [F,B,]3 [F,A,] [B,,B,]4 | [F,A,F]3 [F,B,F] [F,A,F]2 [F,CF]2 | %3
 z G z B, F,4 | [B,,B,]3 [B,,B,] [B,,B,]2 [B,,F,]2 | [F,A,E]3 [F,A,E] [F,A,E]4 | %6
 [B,F]2 [D,B,]2 [E,G,][D,=B,]C-[E,C] | [F,DF]2 [F,CE]2 [B,,B,]4 | %8
 [F,A,F]2 [F,A,]2 [F,A,]2 [F,A,]2 | [B,,B,]2 [B,,B,]2 [B,,B,]2 [B,,B,]2 | %10
 [D,B,]2[K:treble] [F,A,F]2 [B,F]2[K:bass] [E,C]2 | [F,DF]2 [F,CE]2 [B,,B,]4 |] %12
V:3
 x8 | x8 | x8 | [C,C]2 C,2 z4 | x8 | x8 | z4 z2 .C,2 | x8 | x8 | x8 | x2[K:treble] x4[K:bass] x2 | %11
 x8 |] %12
V:4
 x8 | x8 | x8 | x8 | x8 | x8 | z4 .c2 G2 | x8 | x8 | x8 | z4 z2 G2 | x8 |] %12

